src/assets/images/icons/dribbble.svg

<?xml version="1.0" encoding="UTF-8"?>
<svg width="22px" height="22px" viewBox="0 0 22 22" version="1.1" xmlns="http://www.w3.org/2000/svg" xmlns:xlink="http://www.w3.org/1999/xlink">
    <!-- Generator: Sketch 49.1 (51147) - http://www.bohemiancoding.com/sketch -->
    <title>dribbble</title>
    <desc>Created with Sketch.</desc>
    <defs></defs>
    <g id="Page-1" stroke="none" stroke-width="1" fill="none" fill-rule="evenodd">
        <g id="Homepage" transform="translate(-158.000000, -2214.000000)">
            <g id="Dribbble" transform="translate(159.000000, 2210.000000)">
                <g id="dribbble" transform="translate(0.000000, 5.000000)">
                    <circle id="Path" stroke="#4A4A4A" cx="10" cy="10" r="10"></circle>
                    <path d="M10,8.30249035 C9.76702448,7.86595306 9.53405239,7.45314632 9.30107515,7.06405738 C9.06809962,6.67496844 8.85752927,6.33096283 8.66935547,6.0320296 C8.48118167,5.73309455 8.32437477,5.49347678 8.19892614,5.31316901 C8.0734758,5.13285941 8.00179234,5.02847157 7.98387234,5 C7.60752475,5.18980073 7.25806576,5.42230151 6.93548334,5.69750965 C6.61290264,5.97271779 6.32168539,6.2811385 6.06182814,6.62277725 C5.80197089,6.96441419 5.58243829,7.33688955 5.40322588,7.74021427 C5.22401346,8.14353716 5.08960621,8.56346088 5,9 C5.03584241,9 5.19489104,8.99762767 5.47715053,8.99288302 C5.75941088,8.98813837 6.12678987,8.9667856 6.57930092,8.92882473 C7.03181196,8.89086568 7.5515213,8.82206455 8.13844097,8.72241954 C8.72536236,8.62277452 9.34587516,8.48279995 10,8.30249035 Z M10.7847534,9.86135634 C10.8206273,9.85349057 10.8565011,9.84562329 10.8923767,9.83775752 C10.9282506,9.82989174 10.9641244,9.82202446 11,9.81415869 C10.9282506,9.67256574 10.8565011,9.53490719 10.7847534,9.40117851 C10.713004,9.26745133 10.6367705,9.13372718 10.556053,9 C9.8564981,9.18092482 9.17937533,9.31858338 8.52466403,9.41297867 C7.86995101,9.50737397 7.28475576,9.57423756 6.76905761,9.61356944 C6.25336118,9.6528998 5.83632519,9.67453219 5.51793723,9.67846507 C5.19954996,9.68239796 5.026906,9.68043151 5,9.67256574 C5,9.70403034 5,9.73156205 5,9.75516238 C5,9.77876121 5,9.80235852 5,9.82595735 C5,10.4395313 5.12331719,11.0176957 5.36995502,11.5604717 C5.61659302,12.1032477 5.95515509,12.5830854 6.38565003,13 C6.38565003,13 6.47757755,12.8761081 6.66143431,12.6283181 C6.84529279,12.3805297 7.12107363,12.0855467 7.48878888,11.743363 C7.85650413,11.4011778 8.313898,11.0550657 8.86098599,10.7050147 C9.40807399,10.3549637 10.0493229,10.0737473 10.7847534,9.86135634 Z M7.11464887,14.0891712 C7.11464887,14.0891712 7.10403383,14.0806791 7.08280214,14.0636935 C7.06157045,14.0467078 7.03396973,14.0254777 7,14 C7.01698405,14.0169841 7.03609274,14.0318467 7.05732443,14.0445848 C7.07855613,14.0573244 7.09766318,14.0721855 7.11464887,14.0891712 Z M9.01273967,5 C9.00424601,5 9,5 9,5 C9,5 9.00212301,5 9.00636902,5 C9.01061503,5 9.01273967,5 9.01273967,5 Z M14,6.21951283 C13.5106162,5.84552629 12.94968,5.54878155 12.3171755,5.32926768 C11.6846693,5.10975381 11.0175481,5 10.3157906,5 C10.0849491,5 9.86103594,5.01219435 9.64404399,5.0365846 C9.42705382,5.06097486 9.21237367,5.09349468 9,5.13414563 C9.01846781,5.15853589 9.09464378,5.24999818 9.22853145,5.40853563 C9.36241912,5.56707308 9.52631411,5.77438792 9.72022173,6.03048795 C9.91412936,6.28658643 10.131116,6.58333117 10.3711923,6.92073154 C10.6112668,7.25813191 10.8513377,7.61788546 11.091414,8 C12.1348163,7.65040528 12.8781153,7.27032782 13.3213304,6.85975667 C13.7645456,6.44918553 13.990767,6.23577196 14,6.21951283 Z M10.0000008,16 C9.16772362,16 8.38853789,15.842889 7.66242079,15.5286624 C6.93630206,15.2144358 6.30148892,14.7855654 5.75796178,14.2420382 C5.21443465,13.6985111 4.78556421,13.0636979 4.47133758,12.3375792 C4.15711095,11.6114621 4,10.8322764 4,9.99999918 C4,9.17621727 4.15711095,8.39915455 4.47133758,7.66878981 C4.78556421,6.93842507 5.21443465,6.30148892 5.75796178,5.75796178 C6.30148892,5.21443465 6.93630206,4.78556454 7.66242079,4.47133839 C8.38853789,4.15711062 9.16772362,4 10.0000008,4 C10.8322764,4 11.6114621,4.15711062 12.3375792,4.47133839 C13.0636979,4.78556454 13.6985111,5.21443465 14.2420382,5.75796178 C14.7855654,6.30148892 15.2144355,6.93842507 15.5286616,7.66878981 C15.8428894,8.39915455 16,9.17621727 16,9.99999918 C16,10.8322764 15.8428894,11.6114621 15.5286616,12.3375792 C15.2144355,13.0636979 14.7855654,13.6985111 14.2420382,14.2420382 C13.6985111,14.7855654 13.0636979,15.2144358 12.3375792,15.5286624 C11.6114621,15.842889 10.8322764,16 10.0000008,16 Z M10.8985156,11.0118702 C10.1724388,11.2571729 9.56188356,11.5479707 9.06683248,11.8842726 C8.5717798,12.2205761 8.17161822,12.5430252 7.86633663,12.851632 C7.56105505,13.1602389 7.34034693,13.4253197 7.20420752,13.6468835 C7.06806812,13.8684489 7,13.9831855 7,13.9910979 C7.42079366,14.3076178 7.89108594,14.5548953 8.41089109,14.7329376 C8.93069624,14.9109801 9.4793695,15 10.0569315,15 C10.4034677,15 10.7396848,14.9683485 11.0655937,14.9050445 C11.3915026,14.8417405 11.7029687,14.7507424 12,14.6320475 C11.9834978,14.5212656 11.950495,14.3531169 11.9009901,14.1275968 C11.8514851,13.9020768 11.7854796,13.6310601 11.7029703,13.3145393 C11.620461,12.99802 11.515265,12.6419399 11.3873758,12.2462916 C11.2594883,11.8506417 11.1089125,11.4352152 10.9356436,11 C10.9273933,11 10.921204,11.0019781 10.9170788,11.0059343 C10.9129537,11.0098906 10.9067659,11.0118702 10.8985156,11.0118702 Z M11,8.90039813 C11.0592604,9.01195398 11.1164012,9.12549868 11.171429,9.24103681 C11.2264552,9.35657494 11.2793651,9.47410345 11.3301588,9.59362692 C11.3555556,9.63346655 11.3767199,9.67529961 11.3936501,9.71912458 C11.4105818,9.76294955 11.4275136,9.80478108 11.4444437,9.84462224 C11.8846582,9.78884431 12.3142831,9.76693336 12.7333333,9.77888479 C13.1523834,9.79083775 13.5291001,9.81275023 13.8634931,9.84462224 C14.197886,9.87649425 14.4687828,9.91035969 14.6761916,9.94621551 C14.8836004,9.98207286 14.9915349,10 15,10 C14.9915349,9.43426076 14.8857167,8.89442547 14.6825404,8.38047882 C14.4793642,7.86653217 14.2000023,7.40637614 13.844445,7 C13.83598,7.00796762 13.6116426,7.2290813 13.1714282,7.66334717 C12.7312154,8.0976115 12.007413,8.50995876 11,8.90039813 Z M12,10.1101497 C12.1593645,10.5980768 12.2968136,11.0611505 12.4123516,11.4993812 C12.5278897,11.9376136 12.6215138,12.3284015 12.6932284,12.671757 C12.7649416,13.0151142 12.8207179,13.3019935 12.8605575,13.5324036 C12.9003987,13.7628136 12.9282869,13.9186774 12.9442236,14 C13.2151409,13.7921776 13.4641427,13.5549947 13.691235,13.2884409 C13.9183274,13.0218888 14.1195219,12.7350095 14.2948201,12.427796 C14.4701199,12.1205809 14.61753,11.7907832 14.7370519,11.438391 C14.8565737,11.0859987 14.9442221,10.720059 15,10.340558 C14.9521912,10.3224879 14.6354617,10.2434257 14.0498007,10.1033734 C13.4641411,9.96331929 12.7808814,9.96557806 12,10.1101497 Z" id="Page-1" fill="#4A4A4A"></path>
                </g>
            </g>
        </g>
    </g>
</svg>

<svg width="22" height="22" xmlns="http://www.w3.org/2000/svg"><g transform="translate(1 1)" fill="none" fill-rule="evenodd"><circle stroke="#4A4A4A" cx="10" cy="10" r="10"/><path d="M10 8.302c-.233-.436-.466-.849-.699-1.238-.233-.389-.443-.733-.632-1.032a19.46 19.46 0 00-.47-.719c-.126-.18-.197-.285-.215-.313-.376.19-.726.422-1.049.698a5.935 5.935 0 00-.873.925c-.26.341-.48.714-.659 1.117C5.224 8.144 5.09 8.563 5 9l.477-.007c.282-.005.65-.026 1.102-.064a18.87 18.87 0 001.56-.207c.586-.1 1.207-.24 1.861-.42zm.785 1.56l.107-.024.108-.024c-.072-.141-.143-.28-.215-.413A9.125 9.125 0 0010.556 9c-.7.18-1.377.319-2.031.413-.655.094-1.24.161-1.756.2-.516.04-.933.062-1.251.065A4.867 4.867 0 015 9.673v.153c0 .614.123 1.192.37 1.734A4.686 4.686 0 006.386 13l.275-.372c.184-.247.46-.542.828-.885a9.66 9.66 0 011.372-1.038 7.317 7.317 0 011.924-.844zm-3.67 4.227l-.032-.025A3.47 3.47 0 007 14a.296.296 0 00.057.045c.022.012.04.027.058.044zM9.013 5H9 9.013zM14 6.22a5.973 5.973 0 00-1.683-.89A6.06 6.06 0 0010.316 5c-.231 0-.455.012-.672.037A8.438 8.438 0 009 5.134c.018.025.095.116.229.275.133.158.297.365.491.621.194.257.411.553.651.89.24.338.48.698.72 1.08 1.044-.35 1.787-.73 2.23-1.14.444-.41.67-.624.679-.64zM10 16a5.822 5.822 0 01-2.338-.471 6.08 6.08 0 01-1.904-1.287 6.08 6.08 0 01-1.287-1.904A5.822 5.822 0 014 10c0-.824.157-1.6.471-2.331a6.06 6.06 0 011.287-1.911 6.08 6.08 0 011.904-1.287A5.822 5.822 0 0110 4c.832 0 1.611.157 2.338.471a6.08 6.08 0 011.904 1.287 6.06 6.06 0 011.287 1.91C15.843 8.4 16 9.177 16 10c0 .832-.157 1.611-.471 2.338a6.08 6.08 0 01-1.287 1.904 6.08 6.08 0 01-1.904 1.287A5.822 5.822 0 0110 16zm.899-4.988c-.727.245-1.337.536-1.832.872a8.092 8.092 0 00-1.2.968c-.306.308-.527.573-.663.795A5.126 5.126 0 007 13.99 5.053 5.053 0 0010.057 15 5.279 5.279 0 0012 14.632a8.308 8.308 0 00-.099-.504 19.534 19.534 0 00-.514-1.881A20.06 20.06 0 0010.936 11c-.009 0-.015.002-.019.006s-.01.006-.018.006zM11 8.9a8.702 8.702 0 01.33.694c.026.04.047.081.064.125l.05.126c.44-.056.87-.078 1.29-.066.418.012.795.034 1.13.066.334.031.605.065.812.101.208.036.316.054.324.054a4.553 4.553 0 00-.317-1.62A4.707 4.707 0 0013.844 7c-.008.008-.232.23-.673.663-.44.435-1.164.847-2.171 1.237zm1 1.21a25.094 25.094 0 01.86 3.422c.04.23.068.387.084.468.271-.208.52-.445.747-.712a5.614 5.614 0 001.046-1.85c.12-.352.207-.718.263-1.097a22.063 22.063 0 00-.95-.238c-.586-.14-1.27-.137-2.05.007z" fill="#4A4A4A"/></g></svg>
